dist/svgs/palette.svg

<svg xmlns="http://www.w3.org/2000/svg" viewBox="0 0 512 512"><path d="M492 138q20 43 20 90 0 30-12 55-11 26-30 45-17 18-44 31-26 10-57 10h-51q-4 0-7.5 1t-8.5 3q-8 5-13 10-7 5-10 13t-3 16q0 9 3 16 2 3 3.5 6.5t3.5 6.5q7 6 10 13 2 5 2 15 0 9-3 16-4 9-10 14-2 3-5.5 5.5T272 509q-9 3-16 3-52 0-100-20-23-10-43.5-24T74 437q-35-34-54-81-11-23-15.5-48.5T0 256q0-56 20-100 19-46 54-82 36-35 82-54Q204 0 256 0q53 0 100 18t81 49q33 29 55 71zM99 255q17 0 29.5-12.5T141 213t-12.5-29.5T99 171t-29.5 12.5T57 213t12.5 29.5T99 255zm86-114q17 0 29.5-12.5T227 99t-12.5-29.5T185 57q-18 0-30.5 12.5T142 99t12.5 29.5T185 141zm142 1q17 0 29.5-12.5T369 100q0-18-12.5-30.5T327 57q-18 0-30 12.5T285 100q0 17 12 29.5t30 12.5zm86 113q17 0 29.5-12.5T455 213t-12.5-29.5T413 171q-18 0-30.5 12.5T370 213t12.5 29.5T413 255z"/></svg>

<?xml version="1.0" encoding="UTF-8" standalone="no"?><svg   xmlns:svg="http://www.w3.org/2000/svg"   xmlns="http://www.w3.org/2000/svg"   version="1.1"   width="512"   height="512"   viewBox="0 0 512 512">  <path     d="M492 138Q512 181 512 228Q512 258 500 283Q489 309 470 328Q453 346 426 359Q400 369 369 369H318Q314 369 310.5 370T302 373Q294 378 289 383Q282 388 279 396T276 412Q276 421 279 428Q281 431 282.5 434.5T286 441Q293 447 296 454Q298 459 298 469Q298 478 295 485Q291 494 285 499Q283 502 279.5 504.5T272 509Q263 512 256 512Q204 512 156 492Q133 482 112.5 468T74 437Q39 403 20 356Q9 333 4.5 307.5T0 256Q0 200 20 156Q39 110 74 74Q110 39 156 20Q204 0 256 0Q309 0 356 18T437 67Q470 96 492 138zM99 255Q116 255 128.5 242.5T141 213T128.5 183.5T99 171T69.5 183.5T57 213T69.5 242.5T99 255zM185 141Q202 141 214.5 128.5T227 99T214.5 69.5T185 57Q167 57 154.5 69.5T142 99T154.5 128.5T185 141zM327 142Q344 142 356.5 129.5T369 100Q369 82 356.5 69.5T327 57Q309 57 297 69.5T285 100Q285 117 297 129.5T327 142zM413 255Q430 255 442.5 242.5T455 213T442.5 183.5T413 171Q395 171 382.5 183.5T370 213T382.5 242.5T413 255z"     id="palette" /></svg>
